polaris-icons/icons/newicons/MarketsMajor.svg

<svg width="20" height="20" viewBox="0 0 20 20" fill="none" xmlns="http://www.w3.org/2000/svg">
<path fill-rule="evenodd" clip-rule="evenodd" d="M13.2445 7.56927C13.2487 7.60425 13.2505 7.63896 13.25 7.67322C13.2452 8.05812 12.9465 8.38199 12.5554 8.41097C11.7555 8.47024 10.8948 8.50003 10 8.50003C9.32835 8.50003 8.67519 8.48324 8.05208 8.4497C8.01767 8.94478 8 9.46348 8 10C8 10.4994 8.01531 10.9834 8.04518 11.4473C8.66268 11.4823 9.31838 11.5003 10 11.5003C10.1649 11.5003 10.3284 11.4992 10.4903 11.4971C10.9045 11.4918 11.2446 11.8232 11.2499 12.2374C11.2553 12.6515 10.9239 12.9916 10.5097 12.997C10.3412 12.9992 10.1713 13.0003 10 13.0003C9.38356 13.0003 8.78197 12.9861 8.20438 12.9578C8.31454 13.6858 8.46753 14.3341 8.65913 14.8769C8.87174 15.4791 9.11585 15.9051 9.36171 16.1689C9.59595 16.4202 9.80462 16.5 10 16.5C10.4142 16.5 10.75 16.8358 10.75 17.25C10.75 17.6383 10.4549 17.9577 10.0767 17.9961C10.0515 17.9987 10.0259 18 10 18H9.99755C5.5804 17.9987 2 14.4175 2 10C2 5.58616 5.57453 2.0072 9.98668 2.00001L10 2L10.0249 2.00004C12.1538 2.00654 14.0882 2.8455 15.5173 4.20695C15.8172 4.49266 15.8287 4.9674 15.543 5.2673C15.2573 5.56721 14.7826 5.57872 14.4827 5.29301C13.8743 4.71339 13.1542 4.25077 12.358 3.94071C12.7976 4.92288 13.0787 6.21006 13.2445 7.56927ZM6.53492 11.3184C6.51158 10.8881 6.5 10.4474 6.5 10C6.5 9.42994 6.5188 8.87089 6.55676 8.33022C6.40545 8.31372 6.25699 8.29602 6.1116 8.27712C5.27377 8.1682 4.50821 8.01586 3.87812 7.8101C3.63333 8.49434 3.5 9.2316 3.5 10C3.5 10.1596 3.50575 10.3179 3.51706 10.4746C3.57006 10.5274 3.6996 10.6286 3.97811 10.7482C4.32379 10.8967 4.80448 11.0338 5.41028 11.1487C5.75476 11.2141 6.13132 11.2708 6.53492 11.3184ZM3.92883 12.3267C4.29235 12.4425 4.69734 12.5402 5.13067 12.6224C5.60188 12.7118 6.11968 12.7853 6.67343 12.8429C6.79668 13.7844 6.98633 14.6443 7.24467 15.3762C7.32082 15.5919 7.40442 15.8008 7.49621 16.0003C5.8613 15.3172 4.56494 13.9855 3.92883 12.3267ZM8.65913 5.12313C8.4751 5.64448 8.32669 6.26317 8.21763 6.95632C8.78497 6.98528 9.38222 7.00003 10 7.00003C10.5671 7.00003 11.1173 6.9876 11.6434 6.96311C11.4806 5.97192 11.2528 5.12313 10.9641 4.49905C10.5881 3.68612 10.2387 3.5051 10.01 3.50001L10 3.5C9.80462 3.5 9.59595 3.5798 9.36171 3.83111C9.11585 4.09489 8.87174 4.52085 8.65913 5.12313ZM6.30497 6.78964C6.43953 6.80713 6.5773 6.82356 6.71809 6.83892C6.84073 6.02155 7.01573 5.27238 7.24467 4.62382C7.32082 4.40811 7.40442 4.19922 7.49621 3.99974C6.28727 4.5048 5.26345 5.36456 4.55482 6.44898C5.02005 6.58277 5.60828 6.69907 6.30497 6.78964Z" fill="black"/>
<path d="M15.25 15.5H13.25C12.8358 15.5 12.5 15.8358 12.5 16.25C12.5 16.6642 12.8358 17 13.25 17H14V17.25C14 17.6642 14.3358 18 14.75 18C15.1642 18 15.5 17.6642 15.5 17.25V16.9863C16.625 16.8619 17.5 15.9081 17.5 14.75C17.5 13.5074 16.4926 12.5 15.25 12.5H14.75C14.3358 12.5 14 12.1642 14 11.75C14 11.3358 14.3358 11 14.75 11H16.75C17.1642 11 17.5 10.6642 17.5 10.25C17.5 9.83579 17.1642 9.5 16.75 9.5L16 9.5V8.75C16 8.33579 15.6642 8 15.25 8C14.8358 8 14.5 8.33579 14.5 8.75V9.5L14.5001 9.51372C13.3751 9.63802 12.5 10.5918 12.5 11.75C12.5 12.9926 13.5074 14 14.75 14H15.25C15.6642 14 16 14.3358 16 14.75C16 15.1642 15.6642 15.5 15.25 15.5Z" fill="black"/>
</svg>

<svg viewBox="0 0 20 20" fill="none" xmlns="http://www.w3.org/2000/svg"><path fill-rule="evenodd" clip-rule="evenodd" d="M13.245 7.57a.75.75 0 0 1-.69.842c-.8.058-1.66.088-2.555.088-.672 0-1.325-.017-1.948-.05a22.413 22.413 0 0 0-.052 1.55c0 .5.015.983.045 1.447a34.696 34.696 0 0 0 2.445.05.75.75 0 0 1 .02 1.5 39.043 39.043 0 0 1-2.306-.04c.11.729.264 1.377.455 1.92.213.602.457 1.028.703 1.292.234.251.443.331.638.331a.75.75 0 0 1 0 1.5h-.002a8 8 0 0 1-.011-16h.038a7.975 7.975 0 0 1 5.492 2.207.75.75 0 0 1-1.034 1.086 6.503 6.503 0 0 0-2.125-1.352c.44.982.72 2.27.886 3.628Zm-6.71 3.748a24.38 24.38 0 0 1 .022-2.988 21.72 21.72 0 0 1-.445-.053c-.838-.109-1.604-.261-2.234-.467a6.489 6.489 0 0 0-.36 2.665c.052.052.182.154.46.273.346.149.826.286 1.432.4.345.066.721.123 1.125.17Zm-2.606 1.009c.363.116.768.213 1.202.295.47.09.989.163 1.542.22.124.942.313 1.802.572 2.534.076.216.16.425.251.624a6.522 6.522 0 0 1-3.567-3.673Zm4.73-7.204c-.184.521-.332 1.14-.441 1.833a35.447 35.447 0 0 0 3.426.007c-.163-.991-.391-1.84-.68-2.464-.376-.813-.725-.994-.954-.999h-.01c-.195 0-.404.08-.638.331-.246.264-.49.69-.703 1.292Zm-2.354 1.667c.135.017.272.034.413.049a12.13 12.13 0 0 1 .527-2.215c.076-.216.16-.425.251-.624a6.524 6.524 0 0 0-2.941 2.449c.465.134 1.053.25 1.75.34Z" fill="#5C5F62"/><path d="M15.25 15.5h-2a.75.75 0 0 0 0 1.5h.75v.25a.75.75 0 0 0 1.5 0v-.264a2.25 2.25 0 0 0-.25-4.486h-.5a.75.75 0 0 1 0-1.5h2a.75.75 0 0 0 0-1.5h-.75v-.75a.75.75 0 0 0-1.5 0v.764a2.25 2.25 0 0 0 .25 4.486h.5a.75.75 0 0 1 0 1.5Z" fill="#5C5F62"/></svg>
